src/lib/packages/icons/src/assets/filled/face-smile.svg

<svg xmlns="http://www.w3.org/2000/svg" width="24" height="24" fill="none"><path fill="currentColor" d="M12 2C6.48 2 2 6.48 2 12s4.48 10 10 10 10-4.48 10-10S17.52 2 12 2Zm3 6.25c.72 0 1.25.74 1.25 1.75s-.53 1.75-1.25 1.75-1.25-.74-1.25-1.75.53-1.75 1.25-1.75Zm-6 0c.72 0 1.25.74 1.25 1.75S9.72 11.75 9 11.75 7.75 11.01 7.75 10 8.28 8.25 9 8.25Zm7.6 7.2c-1.11 1.46-2.78 2.3-4.6 2.3a5.73 5.73 0 0 1-4.59-2.3.75.75 0 0 1 1.2-.9c.8 1.06 2.07 1.7 3.39 1.7 1.32 0 2.58-.62 3.4-1.7a.749.749 0 1 1 1.19.91l.01-.01Z"/></svg>

<svg width="24" height="24" viewBox="0 0 24 24" fill="none" xmlns="http://www.w3.org/2000/svg">
<path d="M12 2C6.48 2 2 6.48 2 12C2 17.52 6.48 22 12 22C17.52 22 22 17.52 22 12C22 6.48 17.52 2 12 2ZM15 8.25C15.72 8.25 16.25 8.99 16.25 10C16.25 11.01 15.72 11.75 15 11.75C14.28 11.75 13.75 11.01 13.75 10C13.75 8.99 14.28 8.25 15 8.25ZM9 8.25C9.72 8.25 10.25 8.99 10.25 10C10.25 11.01 9.72 11.75 9 11.75C8.28 11.75 7.75 11.01 7.75 10C7.75 8.99 8.28 8.25 9 8.25ZM16.6 15.45C15.49 16.91 13.82 17.75 12 17.75C10.18 17.75 8.49 16.89 7.41 15.45C7.16 15.12 7.23 14.65 7.56 14.4C7.89 14.15 8.36 14.22 8.61 14.55C9.41 15.61 10.68 16.25 12 16.25C13.32 16.25 14.58 15.63 15.4 14.55C15.65 14.22 16.12 14.16 16.45 14.41C16.78 14.66 16.84 15.13 16.59 15.46L16.6 15.45Z" fill="currentColor"/>
</svg>
